src/svg/icons/brush.svg

<svg viewBox="0 0 20 20"><path d="M.8 19.8c1 .2 1.9.2 2.7.2 1.7 0 3-.4 4-.9 1.6-.9 2.3-2.2 2.7-3.2.4-1.1.4-1.9.4-1.9 0-.3-.1-.5-.3-.7l-2.9-3c-.2-.3-.5-.4-.9-.3-.1 0-.6.1-1.2.5s-1.4 1.1-1.9 2.1c-.7 1.7-1 3.1-1.3 3.9-.2.4-.3.7-.5.9-.2.2-.4.3-.8.4-.5.1-.8.5-.8 1s.4.9.8 1zm4.5-6.4c.2-.6.6-.9 1.1-1.2.1 0 .1-.1.2-.1l2.1 2.2c-.1.4-.2 1.1-.7 1.8-.3.5-.8 1-1.5 1.3-.7.4-1.6.6-3 .6.3-.5.5-1 .7-1.6.4-.8.6-1.8 1.1-3zm6.1-5.9l-2.5.2c-.3.1-.7.3-.8.7-.1.3 0 .7.2 1l2.7 2.9c.3.3.7.4 1.1.3s.6-.5.7-.9l.2-3 6.7-7c.4-.4.4-1 0-1.4s-1-.4-1.4 0l-6.9 7.2z"/></svg>

<?xml version="1.0" encoding="utf-8"?>
<!-- Generator: Adobe Illustrator 19.2.1, SVG Export Plug-In . SVG Version: 6.00 Build 0)  -->
<svg version="1.1" id="Calque_1" xmlns="http://www.w3.org/2000/svg" xmlns:xlink="http://www.w3.org/1999/xlink" x="0px" y="0px"
	 viewBox="0 0 20 20" style="enable-background:new 0 0 20 20;" xml:space="preserve">
<style type="text/css">
	.st0{fill:#3A434C;}
</style>
<path class="st0" d="M0.8,19.8C1.8,20,2.7,20,3.5,20c1.7,0,3-0.4,4-0.9c1.6-0.9,2.3-2.2,2.7-3.2c0.4-1.1,0.4-1.9,0.4-1.9
	c0-0.3-0.1-0.5-0.3-0.7l-2.9-3C7.2,10,6.9,9.9,6.5,10c-0.1,0-0.6,0.1-1.2,0.5s-1.4,1.1-1.9,2.1c-0.7,1.7-1,3.1-1.3,3.9
	c-0.2,0.4-0.3,0.7-0.5,0.9c-0.2,0.2-0.4,0.3-0.8,0.4c-0.5,0.1-0.8,0.5-0.8,1C0,19.3,0.4,19.7,0.8,19.8z M5.3,13.4
	c0.2-0.6,0.6-0.9,1.1-1.2c0.1,0,0.1-0.1,0.2-0.1l2.1,2.2c-0.1,0.4-0.2,1.1-0.7,1.8c-0.3,0.5-0.8,1-1.5,1.3c-0.7,0.4-1.6,0.6-3,0.6
	c0.3-0.5,0.5-1,0.7-1.6C4.6,15.6,4.8,14.6,5.3,13.4z"/>
<path class="st0" d="M11.4,7.5L8.9,7.7C8.6,7.8,8.2,8,8.1,8.4C8,8.7,8.1,9.1,8.3,9.4l2.7,2.9c0.3,0.3,0.7,0.4,1.1,0.3
	s0.6-0.5,0.7-0.9L13,8.7l6.7-7c0.4-0.4,0.4-1,0-1.4s-1-0.4-1.4,0L11.4,7.5z"/>
</svg>
